X: 080396
T: High Level Hornpipe
M: 4/4
L: 1/8
C:  J. Scott Skinner
S: J.Derrane
Z: B.Black
R: hornpipe
K: G
D2 | (3GBG (3DGD B,DGB | (3dgd (3BdB GBAG |\
(3AdA (3FAF D2 (3B^cd | fed^c ed=cA |
(3GBG (3DGD B,DGB | (3dgd (3BdB GBAG |\
E^EFG ABcd | (3fed (3cBA G2 :|
(3AcA |: FdAd FdAd | FDFA dcBA | BdGd BdGd |\
BABd gdBd |
^ceAe ceAe | ^cAce aece | d^cdf gece |\
|1 dAfe dAFD :|2 dAfe dcBA ||
